packages/icons/raw/imported/DevicesTvBox.svg

<svg width="32" height="32" viewBox="0 0 32 32" fill="none" xmlns="http://www.w3.org/2000/svg">
<path d="M21.5 6.5V6V6.5ZM10.5 6.5V7V6.5ZM6.5 21.5H7H6.5ZM6.5 10.5H6H6.5ZM21.5 25.5V25V25.5ZM10.5 25.5V26V25.5ZM25.5 21.5L25 21.5L25.5 21.5ZM25.5 10.5L26 10.5V10.5L25.5 10.5ZM10.8542 13.125C10.578 13.125 10.3542 13.3489 10.3542 13.625C10.3542 13.9011 10.578 14.125 10.8542 14.125V13.125ZM14.8125 14.125C15.0886 14.125 15.3125 13.9011 15.3125 13.625C15.3125 13.3489 15.0886 13.125 14.8125 13.125V14.125ZM12.3333 18.375C12.3333 18.6511 12.5572 18.875 12.8333 18.875C13.1095 18.875 13.3333 18.6511 13.3333 18.375H12.3333ZM17.2532 13.4327C17.147 13.1778 16.8543 13.0573 16.5994 13.1635C16.3445 13.2697 16.2239 13.5624 16.3301 13.8173L17.2532 13.4327ZM18.7708 18.375L18.3093 18.5673C18.3869 18.7536 18.569 18.875 18.7708 18.875C18.9727 18.875 19.1547 18.7536 19.2324 18.5673L18.7708 18.375ZM21.2115 13.8173C21.3178 13.5624 21.1972 13.2697 20.9423 13.1635C20.6874 13.0573 20.3947 13.1778 20.2885 13.4327L21.2115 13.8173ZM21.5 6L10.5 6V7L21.5 7V6ZM7 21.5L7 10.5H6L6 21.5H7ZM21.5 25H10.5V26H21.5V25ZM26 21.5L26 10.5L25 10.5L25 21.5L26 21.5ZM21.5 26C23.9852 26 26 23.9853 26 21.5L25 21.5C25 23.433 23.433 25 21.5 25V26ZM21.5 7C23.433 7 25 8.56701 25 10.5L26 10.5C26 8.01473 23.9853 6 21.5 6V7ZM10.5 6C8.01472 6 6 8.01472 6 10.5H7C7 8.567 8.567 7 10.5 7V6ZM6 21.5C6 23.9853 8.01472 26 10.5 26V25C8.56701 25 7 23.433 7 21.5H6ZM10.8542 14.125H12.8333V13.125H10.8542V14.125ZM12.8333 14.125H14.8125V13.125H12.8333V14.125ZM12.3333 13.625V18.375H13.3333V13.625H12.3333ZM16.3301 13.8173L18.3093 18.5673L19.2324 18.1827L17.2532 13.4327L16.3301 13.8173ZM19.2324 18.5673L21.2115 13.8173L20.2885 13.4327L18.3093 18.1827L19.2324 18.5673Z" fill="black"/>
</svg>

<svg width="32" height="32" fill="none" xmlns="http://www.w3.org/2000/svg"><path d="M21.5 6.5V6v.5Zm-11 0V7v-.5Zm-4 15H7h-.5Zm0-11H6h.5Zm15 15V25v.5Zm-11 0v.5-.5Zm15-4H25h.5Zm0-11h.5-.5Zm-14.646 2.625a.5.5 0 1 0 0 1v-1Zm3.959 1a.5.5 0 0 0 0-1v1Zm-2.48 4.25a.5.5 0 0 0 1 0h-1Zm4.92-4.942a.5.5 0 1 0-.923.384l.923-.384Zm1.518 4.942-.462.192a.5.5 0 0 0 .923 0l-.461-.192Zm2.44-4.558a.5.5 0 1 0-.922-.384l.922.384ZM21.5 6h-11v1h11V6ZM7 21.5v-11H6v11h1ZM21.5 25h-11v1h11v-1Zm4.5-3.5v-11h-1v11h1ZM21.5 26a4.5 4.5 0 0 0 4.5-4.5h-1a3.5 3.5 0 0 1-3.5 3.5v1Zm0-19a3.5 3.5 0 0 1 3.5 3.5h1A4.5 4.5 0 0 0 21.5 6v1Zm-11-1A4.5 4.5 0 0 0 6 10.5h1A3.5 3.5 0 0 1 10.5 7V6ZM6 21.5a4.5 4.5 0 0 0 4.5 4.5v-1A3.5 3.5 0 0 1 7 21.5H6Zm4.854-7.375h1.98v-1h-1.98v1Zm1.98 0h1.979v-1h-1.98v1Zm-.5-.5v4.75h1v-4.75h-1Zm3.996.192 1.98 4.75.922-.384-1.979-4.75-.923.384Zm2.902 4.75 1.98-4.75-.924-.384-1.979 4.75.923.384Z" fill="#000"/></svg>
